images/Logo.svg

<svg width="179" height="40" viewBox="0 0 179 40" fill="none" xmlns="http://www.w3.org/2000/svg">
<path d="M63.16 32.252C61.408 32.252 59.824 31.952 58.408 31.352C57.016 30.752 55.912 29.888 55.096 28.76C54.28 27.632 53.86 26.3 53.836 24.764H59.236C59.308 25.796 59.668 26.612 60.316 27.212C60.988 27.812 61.9 28.112 63.052 28.112C64.228 28.112 65.152 27.836 65.824 27.284C66.496 26.708 66.832 25.964 66.832 25.052C66.832 24.308 66.604 23.696 66.148 23.216C65.692 22.736 65.116 22.364 64.42 22.1C63.748 21.812 62.812 21.5 61.612 21.164C59.98 20.684 58.648 20.216 57.616 19.76C56.608 19.28 55.732 18.572 54.988 17.636C54.268 16.676 53.908 15.404 53.908 13.82C53.908 12.332 54.28 11.036 55.024 9.93196C55.768 8.82796 56.812 7.98796 58.156 7.41196C59.5 6.81196 61.036 6.51196 62.764 6.51196C65.356 6.51196 67.456 7.14796 69.064 8.41996C70.696 9.66796 71.596 11.42 71.764 13.676H66.22C66.172 12.812 65.8 12.104 65.104 11.552C64.432 10.976 63.532 10.688 62.404 10.688C61.42 10.688 60.628 10.94 60.028 11.444C59.452 11.948 59.164 12.68 59.164 13.64C59.164 14.312 59.38 14.876 59.812 15.332C60.268 15.764 60.82 16.124 61.468 16.412C62.14 16.676 63.076 16.988 64.276 17.348C65.908 17.828 67.24 18.308 68.272 18.788C69.304 19.268 70.192 19.988 70.936 20.948C71.68 21.908 72.052 23.168 72.052 24.728C72.052 26.072 71.704 27.32 71.008 28.472C70.312 29.624 69.292 30.548 67.948 31.244C66.604 31.916 65.008 32.252 63.16 32.252Z" fill="#18063C"/>
<path d="M74.7655 21.956C74.7655 19.94 75.1615 18.152 75.9535 16.592C76.7695 15.032 77.8615 13.832 79.2295 12.992C80.6215 12.152 82.1695 11.732 83.8735 11.732C85.3615 11.732 86.6575 12.032 87.7615 12.632C88.8895 13.232 89.7895 13.988 90.4615 14.9V12.056H95.5375V32H90.4615V29.084C89.8135 30.02 88.9135 30.8 87.7615 31.424C86.6335 32.024 85.3255 32.324 83.8375 32.324C82.1575 32.324 80.6215 31.892 79.2295 31.028C77.8615 30.164 76.7695 28.952 75.9535 27.392C75.1615 25.808 74.7655 23.996 74.7655 21.956ZM90.4615 22.028C90.4615 20.804 90.2215 19.76 89.7415 18.896C89.2615 18.008 88.6135 17.336 87.7975 16.88C86.9815 16.4 86.1055 16.16 85.1695 16.16C84.2335 16.16 83.3695 16.388 82.5775 16.844C81.7855 17.3 81.1375 17.972 80.6335 18.86C80.1535 19.724 79.9135 20.756 79.9135 21.956C79.9135 23.156 80.1535 24.212 80.6335 25.124C81.1375 26.012 81.7855 26.696 82.5775 27.176C83.3935 27.656 84.2575 27.896 85.1695 27.896C86.1055 27.896 86.9815 27.668 87.7975 27.212C88.6135 26.732 89.2615 26.06 89.7415 25.196C90.2215 24.308 90.4615 23.252 90.4615 22.028Z" fill="#18063C"/>
<path d="M98.8039 21.956C98.8039 19.94 99.1999 18.152 99.9919 16.592C100.808 15.032 101.9 13.832 103.268 12.992C104.66 12.152 106.208 11.732 107.912 11.732C109.4 11.732 110.696 12.032 111.8 12.632C112.928 13.232 113.828 13.988 114.5 14.9V12.056H119.576V32H114.5V29.084C113.852 30.02 112.952 30.8 111.8 31.424C110.672 32.024 109.364 32.324 107.876 32.324C106.196 32.324 104.66 31.892 103.268 31.028C101.9 30.164 100.808 28.952 99.9919 27.392C99.1999 25.808 98.8039 23.996 98.8039 21.956ZM114.5 22.028C114.5 20.804 114.26 19.76 113.78 18.896C113.3 18.008 112.652 17.336 111.836 16.88C111.02 16.4 110.144 16.16 109.208 16.16C108.272 16.16 107.408 16.388 106.616 16.844C105.824 17.3 105.176 17.972 104.672 18.86C104.192 19.724 103.952 20.756 103.952 21.956C103.952 23.156 104.192 24.212 104.672 25.124C105.176 26.012 105.824 26.696 106.616 27.176C107.432 27.656 108.296 27.896 109.208 27.896C110.144 27.896 111.02 27.668 111.836 27.212C112.652 26.732 113.3 26.06 113.78 25.196C114.26 24.308 114.5 23.252 114.5 22.028Z" fill="#18063C"/>
<path d="M132.814 32.252C131.062 32.252 129.478 31.952 128.062 31.352C126.67 30.752 125.566 29.888 124.75 28.76C123.934 27.632 123.514 26.3 123.49 24.764H128.89C128.962 25.796 129.322 26.612 129.97 27.212C130.642 27.812 131.554 28.112 132.706 28.112C133.882 28.112 134.806 27.836 135.478 27.284C136.15 26.708 136.486 25.964 136.486 25.052C136.486 24.308 136.258 23.696 135.802 23.216C135.346 22.736 134.77 22.364 134.074 22.1C133.402 21.812 132.466 21.5 131.266 21.164C129.634 20.684 128.302 20.216 127.27 19.76C126.262 19.28 125.386 18.572 124.642 17.636C123.922 16.676 123.562 15.404 123.562 13.82C123.562 12.332 123.934 11.036 124.678 9.93196C125.422 8.82796 126.466 7.98796 127.81 7.41196C129.154 6.81196 130.69 6.51196 132.418 6.51196C135.01 6.51196 137.11 7.14796 138.718 8.41996C140.35 9.66796 141.25 11.42 141.418 13.676H135.874C135.826 12.812 135.454 12.104 134.758 11.552C134.086 10.976 133.186 10.688 132.058 10.688C131.074 10.688 130.282 10.94 129.682 11.444C129.106 11.948 128.818 12.68 128.818 13.64C128.818 14.312 129.034 14.876 129.466 15.332C129.922 15.764 130.474 16.124 131.122 16.412C131.794 16.676 132.73 16.988 133.93 17.348C135.562 17.828 136.894 18.308 137.926 18.788C138.958 19.268 139.846 19.988 140.59 20.948C141.334 21.908 141.706 23.168 141.706 24.728C141.706 26.072 141.358 27.32 140.662 28.472C139.966 29.624 138.946 30.548 137.602 31.244C136.258 31.916 134.662 32.252 132.814 32.252Z" fill="#18063C"/>
<path d="M151.584 16.196V25.844C151.584 26.516 151.74 27.008 152.052 27.32C152.388 27.608 152.94 27.752 153.708 27.752H156.048V32H152.88C148.632 32 146.508 29.936 146.508 25.808V16.196H144.132V12.056H146.508V7.12396H151.584V12.056H156.048V16.196H151.584Z" fill="#18063C"/>
<path d="M168.169 32.324C166.249 32.324 164.521 31.904 162.985 31.064C161.449 30.2 160.237 28.988 159.349 27.428C158.485 25.868 158.053 24.068 158.053 22.028C158.053 19.988 158.497 18.188 159.385 16.628C160.297 15.068 161.533 13.868 163.093 13.028C164.653 12.164 166.393 11.732 168.313 11.732C170.233 11.732 171.973 12.164 173.533 13.028C175.093 13.868 176.317 15.068 177.205 16.628C178.117 18.188 178.573 19.988 178.573 22.028C178.573 24.068 178.105 25.868 177.169 27.428C176.257 28.988 175.009 30.2 173.425 31.064C171.865 31.904 170.113 32.324 168.169 32.324ZM168.169 27.932C169.081 27.932 169.933 27.716 170.725 27.284C171.541 26.828 172.189 26.156 172.669 25.268C173.149 24.38 173.389 23.3 173.389 22.028C173.389 20.132 172.885 18.68 171.877 17.672C170.893 16.64 169.681 16.124 168.241 16.124C166.801 16.124 165.589 16.64 164.605 17.672C163.645 18.68 163.165 20.132 163.165 22.028C163.165 23.924 163.633 25.388 164.569 26.42C165.529 27.428 166.729 27.932 168.169 27.932Z" fill="#18063C"/>
<path d="M22.3927 37.0075H11.3049C6.66779 37.0075 2.90637 33.2495 2.90637 28.609V11.3912C2.90637 6.7541 6.66435 2.99268 11.3049 2.99268H24.8164C23.3098 3.14093 21.8514 3.46156 20.4516 3.96492C18.4623 4.68204 16.8453 5.76116 15.6007 7.19885C14.3561 8.63653 13.7321 10.3604 13.7321 12.3738C13.7321 14.5286 14.2596 16.28 15.3146 17.6177C16.3661 18.9589 17.6383 19.9656 19.1243 20.6345C20.6068 21.3068 22.5237 21.9756 24.8715 22.6479C26.7885 23.2237 28.2848 23.727 29.3639 24.158C30.4396 24.589 31.3394 25.1889 32.06 25.9542C32.7771 26.7196 33.1356 27.7022 33.1356 28.8986C33.1356 30.6707 32.5013 32.0497 31.2325 33.0289C29.9638 34.0115 28.202 34.501 25.9507 34.501C23.458 34.501 21.5549 34.0804 20.2379 33.2426C18.9209 32.4049 18.2623 31.2671 18.2623 29.8294C18.2623 28.7779 18.5382 27.9608 19.0898 27.385C19.6414 26.8093 19.9172 26.499 19.9172 26.4507C19.9172 26.2128 19.6173 25.8749 19.0174 25.444C18.4175 25.013 17.7348 24.7958 16.9695 24.7958C15.6283 24.7958 14.5388 25.2268 13.7011 26.0887C12.8633 26.9506 12.4427 28.078 12.4427 29.4674C12.4427 31.9118 13.639 33.8046 16.0351 35.1423C17.7728 36.1249 19.8965 36.7386 22.3927 37.0075Z" fill="#FA865F"/>
<path d="M28.8399 0H11.1567C5.00603 0 0 5.00603 0 11.1567V28.8399C0 34.994 5.00603 39.9966 11.1567 39.9966H28.8399C34.994 39.9966 40 34.9905 40 28.8399V11.1567C40 5.00603 34.994 0 28.8399 0ZM39.045 28.8399C39.045 34.4734 34.4768 39.0415 28.8433 39.0415H11.1567C5.52319 39.0415 0.955008 34.4734 0.955008 28.8399V11.1567C0.955008 5.52319 5.52319 0.955008 11.1567 0.955008H28.8399C31.2429 0.955008 33.4494 1.79279 35.1939 3.18911C37.1798 5.10602 38.4899 8.31926 37.0074 11.5359C36.8109 12.0772 36.5178 12.5737 36.1283 13.0219C35.3387 13.9321 34.2941 14.3872 33.0012 14.3872C32.2324 14.3872 31.5532 14.17 30.9533 13.739C30.3534 13.3081 30.0534 12.9736 30.0534 12.7323C30.0534 12.684 30.2465 12.4944 30.6292 12.1565C31.0119 11.8221 31.3601 11.4256 31.6739 10.9705C31.9841 10.5154 32.1427 9.97759 32.1427 9.35356C32.0462 8.06068 31.398 7.05396 30.2017 6.33684C29.0019 5.61972 27.5884 5.25771 25.961 5.25771C24.1407 5.25771 22.5478 5.67833 21.1826 6.51612C19.8173 7.3539 19.1346 8.51577 19.1346 10.0017C19.1346 11.3429 19.4208 12.4082 19.9966 13.1977C20.5723 13.9872 21.4342 14.6251 22.5823 15.1008C23.7304 15.5801 25.5508 16.2282 28.0434 17.0419C30.5809 17.8555 32.5702 18.6106 34.0079 19.307C35.2284 19.8966 36.2179 20.6689 37.0074 21.6032C37.0178 21.617 37.0281 21.6273 37.0384 21.6411C38.3761 23.2512 39.045 25.3094 39.045 27.4022V28.8399Z" fill="#FA865F"/>
</svg>

<svg xmlns="http://www.w3.org/2000/svg" width="179" height="40" fill="none"><path fill="#18063C" d="M63.16 32.252q-2.628 0-4.752-.9-2.088-.9-3.312-2.592t-1.26-3.996h5.4q.108 1.548 1.08 2.448 1.008.9 2.736.9 1.764 0 2.772-.828 1.008-.864 1.008-2.232 0-1.116-.684-1.836T64.42 22.1q-1.008-.432-2.808-.936-2.448-.72-3.996-1.404-1.512-.72-2.628-2.124-1.08-1.44-1.08-3.816 0-2.232 1.116-3.888t3.132-2.52q2.016-.9 4.608-.9 3.888 0 6.3 1.908 2.448 1.872 2.7 5.256H66.22q-.072-1.296-1.116-2.124-1.008-.864-2.7-.864-1.476 0-2.376.756-.864.756-.864 2.196 0 1.008.648 1.692a5.8 5.8 0 0 0 1.656 1.08q1.008.396 2.808.936 2.448.72 3.996 1.44t2.664 2.16 1.116 3.78a7.1 7.1 0 0 1-1.044 3.744q-1.044 1.728-3.06 2.772-2.016 1.008-4.788 1.008M74.766 21.956q0-3.024 1.188-5.364 1.224-2.34 3.276-3.6 2.087-1.26 4.644-1.26 2.232 0 3.888.9 1.691.9 2.7 2.268v-2.844h5.075V32h-5.076v-2.916q-.97 1.404-2.7 2.34-1.69.9-3.923.9-2.52 0-4.608-1.296-2.052-1.296-3.276-3.636-1.188-2.376-1.188-5.436m15.695.072q0-1.836-.72-3.132-.72-1.332-1.944-2.016a5.1 5.1 0 0 0-2.627-.72q-1.404 0-2.593.684-1.187.684-1.944 2.016-.72 1.296-.72 3.096t.72 3.168q.757 1.332 1.945 2.052 1.224.72 2.591.72 1.405 0 2.629-.684a5.24 5.24 0 0 0 1.944-2.016q.72-1.332.72-3.168M98.804 21.956q0-3.024 1.188-5.364 1.224-2.34 3.276-3.6 2.088-1.26 4.644-1.26 2.232 0 3.888.9 1.692.9 2.7 2.268v-2.844h5.076V32H114.5v-2.916q-.972 1.404-2.7 2.34-1.692.9-3.924.9-2.52 0-4.608-1.296-2.052-1.296-3.276-3.636-1.188-2.376-1.188-5.436m15.696.072q0-1.836-.72-3.132-.72-1.332-1.944-2.016a5.1 5.1 0 0 0-2.628-.72q-1.404 0-2.592.684t-1.944 2.016q-.72 1.296-.72 3.096t.72 3.168q.756 1.332 1.944 2.052 1.224.72 2.592.72 1.404 0 2.628-.684a5.24 5.24 0 0 0 1.944-2.016q.72-1.332.72-3.168M132.814 32.252q-2.628 0-4.752-.9-2.088-.9-3.312-2.592t-1.26-3.996h5.4q.108 1.548 1.08 2.448 1.008.9 2.736.9 1.764 0 2.772-.828 1.008-.864 1.008-2.232 0-1.116-.684-1.836t-1.728-1.116q-1.008-.432-2.808-.936-2.448-.72-3.996-1.404-1.512-.72-2.628-2.124-1.08-1.44-1.08-3.816 0-2.232 1.116-3.888t3.132-2.52q2.016-.9 4.608-.9 3.888 0 6.3 1.908 2.448 1.872 2.7 5.256h-5.544q-.072-1.296-1.116-2.124-1.008-.864-2.7-.864-1.476 0-2.376.756-.864.756-.864 2.196 0 1.008.648 1.692a5.8 5.8 0 0 0 1.656 1.08q1.008.396 2.808.936 2.448.72 3.996 1.44t2.664 2.16 1.116 3.78a7.1 7.1 0 0 1-1.044 3.744q-1.044 1.728-3.06 2.772-2.016 1.008-4.788 1.008M151.584 16.196v9.648q0 1.008.468 1.476.504.432 1.656.432h2.34V32h-3.168q-6.372 0-6.372-6.192v-9.612h-2.376v-4.14h2.376V7.124h5.076v4.932h4.464v4.14zM168.169 32.324q-2.88 0-5.184-1.26-2.304-1.296-3.636-3.636-1.296-2.34-1.296-5.4t1.332-5.4q1.368-2.34 3.708-3.6 2.34-1.296 5.22-1.296t5.22 1.296a9.14 9.14 0 0 1 3.672 3.6q1.368 2.34 1.368 5.4t-1.404 5.4a9.57 9.57 0 0 1-3.744 3.636q-2.34 1.26-5.256 1.26m0-4.392q1.368 0 2.556-.648 1.224-.684 1.944-2.016t.72-3.24q0-2.844-1.512-4.356-1.476-1.548-3.636-1.548t-3.636 1.548q-1.44 1.512-1.44 4.356t1.404 4.392q1.44 1.512 3.6 1.512"/><path fill="#FA865F" d="M22.393 37.008H11.305a8.4 8.4 0 0 1-8.399-8.399V11.391a8.4 8.4 0 0 1 8.399-8.398h13.511a18 18 0 0 0-4.364.972Q17.467 5.04 15.6 7.199q-1.868 2.156-1.869 5.175c0 2.155.528 3.906 1.583 5.244q1.578 2.012 3.81 3.017c1.482.672 3.399 1.34 5.747 2.013q2.874.864 4.492 1.51 1.614.647 2.696 1.796 1.076 1.15 1.076 2.945 0 2.659-1.904 4.13-1.903 1.473-5.281 1.472-3.738 0-5.713-1.258-1.976-1.257-1.976-3.414 0-1.578.828-2.444.827-.863.827-.934 0-.359-.9-1.007a3.42 3.42 0 0 0-2.047-.648q-2.012 0-3.269 1.293-1.258 1.294-1.258 3.378-.001 3.668 3.592 5.675c1.738.983 3.861 1.597 6.358 1.865"/><path fill="#FA865F" d="M28.84 0H11.157C5.006 0 0 5.006 0 11.157V28.84c0 6.154 5.006 11.157 11.157 11.157H28.84C34.994 39.997 40 34.99 40 28.84V11.157C40 5.006 34.994 0 28.84 0m10.205 28.84c0 5.633-4.568 10.202-10.202 10.202H11.157C5.523 39.042.955 34.473.955 28.84V11.157C.955 5.523 5.523.955 11.157.955H28.84c2.403 0 4.61.838 6.354 2.234 1.986 1.917 3.296 5.13 1.813 8.347a4.7 4.7 0 0 1-.879 1.486q-1.186 1.365-3.127 1.365a3.4 3.4 0 0 1-2.048-.648q-.9-.645-.9-1.007.002-.07.576-.575.574-.503 1.045-1.187c.31-.455.469-.992.469-1.616q-.146-1.94-1.941-3.017c-1.2-.717-2.614-1.08-4.241-1.08q-2.73 0-4.778 1.26-2.049 1.256-2.048 3.485-.001 2.01.862 3.196t2.585 1.903q1.723.72 5.461 1.94 3.807 1.221 5.965 2.266c1.22.59 2.21 1.362 3 2.296l.03.038c1.338 1.61 2.007 3.668 2.007 5.761z"/></svg>
